X:1
T:G Major Samuel Babcock, 1795
T:Isaac Watts, 1709 (Hymn 131, Book 2)      88. 88. (L. M.)
T:Pomfret
T:Transcribed from The Middlesex Harmony, 1795.
%%score [ 1 2 3 ]
L:1/8
Q:1/4=100
M:4/4
K:G
V:1 treble nm="Tr." snm="Tr."
V:2 treble-8 nm="T." snm="T."
V:3 bass nm="B." snm="B."
V:1
 B2 | d3 g d3 g | fe dc B2 z d | B2 GB B3 e | A2 ^c2 d4 | d2 cB e3 d | c3 B A3 B/c/ | %7
w: 1.~Let|ev- er- las- ting|glo- * ries * crown Thy|head, my * Sa- vior|and my Lord;|Thy hands have brought sal-|va- tion down, And *|
w: 2.~~What~|if we trace the|globe * a- * round, And|search from * Bri- tain|to Ja- pan,|There shall be no re-|li- gion found So *|
 d3 g (g2 e)c | B2 A2 G4 |] %9
w: writ the bles- * sings|in thy word.|
w: just to God, * so|safe for man.|
V:2
 D2 | A3 B A3 B | A2 AB/c/ B2 z B | d2 Bd d3 g | fd e2 d4 | A2 AB c3 d | ec A>G F3 (3d/e/f/ | %7
w: 3.~~In|vain the trem- bling|con- science * * seeks Some|so- lid * ground to|rest * up- on;|With long des- pair the|spi- * rit * breaks, Till * *|
w: 4.~~How|well thy bles- sed|truths a- * * gree! How|wise and * ho- ly|thy * com- mands!|Thy pro- mi- ses, how|firm * they * be! How * *|
 g3 G G3 e | d2 c2 B4 |] %9
w: we ap- ply to|Christ a- lone.|
w: firm our hope and|com- fort stands.|
V:3
 G,2 | D,3 D, D,2 G,2 | D,2 D,2 G,2 z D, | G,2 G,2 B,2 G,2 | A,2 [A,,A,]2 D,4 | D,2 D,G, C,3 B,, | %6
w: 5.~~Not|the feigned fields of|heathen- ish bliss Could|raise such plea- sures|in the mind;|Nor does the Tur- kish|
w: 6.~~Should|all the forms that|men de- vise As-|sault my faith with|treach- erous art,|I'd call them va- ni-|
 A,,2 A,,2 D,3 G, | B,2 B,2 C2 C2 | D2 D,2 G,4 |] %9
w: pa- ra- dise Pre-|tend to joys so|well re- fined.|
w: ty and lies, And|bind the gos- pel|to my heart.|

